X: 1
T: The Sunset
R: reel
M: 4/4
L: 1/8
K: Dmaj
ed|cF~F2 c2dc|BGBd (de)ed|=cdeg d2Ad|dfed (3Bcd ed|
cF~F2 c2dc|BG (3Bcd (de)ed|=cdeg fde^c|dfec d2:|
|ag|fdfg (ga)gf|e=cef g3a|fggf gfec|dfed (3Bcd ed|
cF~F2 c2dc|BG (3Bcd (de)ed|=cdeg fde^c|dfec d2ag|
=f=cfg (ga)gf|e=ce=f g3a|fggf gfec|dfed (3Bcd ed|
cF~F2 c2dc|BG (3Bcd (de)ed|=cdeg fde^c|dfec d2||


Tune 908	Setting 14092

